brandFactory_export/1.Light/On_1Light.svg

<?xml version="1.0" encoding="UTF-8"?>
<svg width="24px" height="24px" viewBox="0 0 24 24" version="1.1" xmlns="http://www.w3.org/2000/svg" xmlns:xlink="http://www.w3.org/1999/xlink">
    <title>1.Light/On_1Light</title>
    <g id="Symbols" stroke="none" stroke-width="1" fill="none" fill-rule="evenodd">
        <g id="1.Light/On_1Light" fill="#5CB615" fill-rule="nonzero">
            <path d="M12.302521,5.22248911e-13 C14.194958,0.0605042017 23.6235294,0.756302521 23.6235294,11.8117647 C23.6235294,22.8672269 14.2319328,23.6235294 12.3428571,23.6235294 L11.2907563,23.6235294 C0.788293249,23.4888824 0.0302765262,14.2226272 0.000975433919,11.9596615 L0.000998633237,11.661945 C0.0306484088,9.39399994 0.7892906,0.0952120383 11.210084,5.22248911e-13 L11.210084,5.22248911e-13 Z M12.2823529,0.98487395 L11.2201681,0.98487395 C8.85714286,0.98487395 0.981512605,1.88907563 0.981512605,11.8117647 C0.981512605,21.7344538 8.85714286,22.6386555 11.3176471,22.6386555 L12.4277761,22.6381661 C14.9644231,22.6123028 22.6386555,21.529199 22.6386555,11.8117647 C22.6386555,1.9697479 14.7630252,1.05210084 12.2823529,0.98487395 L12.2823529,0.98487395 Z M8.16134454,7.25378151 C9.64705882,7.25378151 11.4588235,8.05042017 11.4588235,11.8117647 C11.4588235,15.5731092 9.68739496,16.3697479 8.20168067,16.3697479 C6.02689076,16.3697479 4.92436975,14.8336134 4.92436975,11.8117647 C4.92436975,8.05042017 6.66554622,7.25378151 8.16134454,7.25378151 Z M13.1798319,7.41176471 C13.3008403,7.41176471 13.4151261,7.46890756 13.4857143,7.5697479 L13.4857143,7.5697479 L17.7142857,13.9159664 L17.7142857,7.77478992 C17.7142857,7.58655462 17.8621849,7.42857143 18.0504202,7.41176471 L18.0504202,7.41176471 L18.410084,7.41176471 C18.605042,7.41512605 18.7596639,7.57983193 18.7529412,7.77478992 L18.7529412,7.77478992 L18.7529412,15.8588235 C18.7529412,16.0605042 18.5915966,16.2218487 18.389916,16.2218487 L18.389916,16.2218487 L18.1142857,16.2218487 C17.989916,16.2218487 17.8756303,16.1579832 17.8084034,16.0537815 L17.8084034,16.0537815 L13.6235294,9.71428571 L13.6235294,15.8453782 C13.6235294,16.0504202 13.4554622,16.2184874 13.2504202,16.2184874 L13.2504202,16.2184874 L12.9142857,16.2184874 C12.712605,16.2151261 12.5512605,16.0470588 12.5512605,15.8453782 L12.5512605,15.8453782 L12.5512605,7.77478992 C12.5512605,7.57647059 12.712605,7.41176471 12.9142857,7.41176471 L12.9142857,7.41176471 Z M8.16134454,8.34621849 C7.15966387,8.34621849 6.00672269,8.7697479 6.00672269,11.8319328 C6.00672269,14.8941176 7.17647059,15.287395 8.16134454,15.287395 C9.15294118,15.287395 10.3058824,14.9243697 10.3058824,11.8319328 C10.3058824,8.7394958 9.16638655,8.34621849 8.16134454,8.34621849 Z" id="On_1Light"></path>
        </g>
    </g>
</svg>

<svg width="24" height="24" viewBox="0 0 24 24" xmlns="http://www.w3.org/2000/svg"><path d="M12.303 0c1.892.06 11.32.756 11.32 11.812 0 11.055-9.391 11.812-11.28 11.812H11.29C.788 23.489.03 14.223 0 11.96v-.298C.031 9.394.789.095 11.211 0zm-.02.985H11.22C8.857.985.982 1.889.982 11.812c0 9.922 7.875 10.827 10.336 10.827h1.11c2.536-.027 10.21-1.11 10.21-10.827 0-9.842-7.875-10.76-10.356-10.827zM8.16 7.254c1.486 0 3.298.796 3.298 4.558 0 3.761-1.772 4.558-3.257 4.558-2.175 0-3.278-1.536-3.278-4.558 0-3.762 1.742-4.558 3.237-4.558zm5.019.158c.12 0 .235.057.306.158l4.228 6.346V7.775c0-.188.148-.346.336-.363h.36a.35.35 0 01.343.363v8.084a.362.362 0 01-.363.363h-.276a.364.364 0 01-.306-.168l-4.184-6.34v6.131a.374.374 0 01-.374.373h-.336a.372.372 0 01-.363-.373v-8.07c0-.199.162-.363.363-.363zm-5.019.934c-1.001 0-2.154.424-2.154 3.486 0 3.062 1.17 3.455 2.154 3.455.992 0 2.145-.363 2.145-3.455 0-3.093-1.14-3.486-2.145-3.486z" fill="#5CB615" fill-rule="nonzero"/></svg>
